svgs/light/book-font.svg

<svg xmlns="http://www.w3.org/2000/svg" viewBox="0 0 448 512"><!--! Font Awesome Pro 6.3.0 by @fontawesome - https://fontawesome.com License - https://fontawesome.com/license (Commercial License) Copyright 2023 Fonticons, Inc. --><path d="M448 368v-320C448 21.49 426.5 0 400 0h-320C35.82 0 0 35.82 0 80V448c0 35.35 28.65 64 64 64h368c8.844 0 16-7.156 16-16S440.8 480 432 480H416v-66.95C434.6 406.4 448 388.8 448 368zM384 480H64c-17.64 0-32-14.36-32-32s14.36-32 32-32h320V480zM400 384H64c-11.71 0-22.55 3.389-32 8.9V80C32 53.49 53.49 32 80 32h320C408.8 32 416 39.16 416 48v320C416 376.8 408.8 384 400 384zM238.3 104.8c-5.438-10.84-23.19-10.84-28.62 0l-96 192C109.7 304.8 112.9 314.4 120.8 318.3c7.906 3.906 17.52 .75 21.47-7.156L169.9 256h108.2l27.58 55.16C308.5 316.8 314.1 320 320 320c2.406 0 4.844-.5469 7.141-1.688c7.906-3.953 11.11-13.56 7.156-21.47L238.3 104.8zM185.9 224L224 147.8L262.1 224H185.9z"/></svg>

<svg xmlns="http://www.w3.org/2000/svg" viewBox="0 0 448 512"><!-- Font Awesome Pro 6.0.0-alpha2 by @fontawesome - https://fontawesome.com License - https://fontawesome.com/license (Commercial License) --><path d="M448 368V48C448 21.49 426.51 0 400 0H80C35.816 0 0 35.816 0 80V448C0 483.346 28.654 512 64 512H432C440.844 512 448 504.844 448 496S440.844 480 432 480H416V413.053C434.584 406.426 448 388.832 448 368ZM384 480H64C46.359 480 32 465.641 32 448S46.359 416 64 416H384V480ZM400 384H64C52.291 384 41.451 387.389 32 392.9V80C32 53.49 53.49 32 80 32H400C408.836 32 416 39.164 416 48V368C416 376.836 408.836 384 400 384ZM238.312 104.844C232.875 94 215.125 94 209.688 104.844L113.688 296.844C109.734 304.75 112.938 314.359 120.844 318.312C128.75 322.219 138.359 319.062 142.312 311.156L169.891 256H278.109L305.687 311.156C308.5 316.766 314.141 320 320.016 320C322.422 320 324.859 319.453 327.156 318.312C335.062 314.359 338.266 304.75 334.312 296.844L238.312 104.844ZM185.891 224L224 147.781L262.109 224H185.891Z"/></svg>
